src/img/projects/wordpress.svg

<?xml version="1.0" encoding="UTF-8"?>
<svg width="90px" height="90px" viewBox="0 0 90 90" version="1.1" xmlns="http://www.w3.org/2000/svg" xmlns:xlink="http://www.w3.org/1999/xlink">
    <!-- Generator: Sketch 41.2 (35397) - http://www.bohemiancoding.com/sketch -->
    <title>community/card/logo/wordpress</title>
    <desc>Created with Sketch.</desc>
    <defs></defs>
    <g id="Symbols" stroke="none" stroke-width="1" fill="none" fill-rule="evenodd">
        <g id="community/card/logo/wordpress" fill="#FFFFFF">
            <path d="M46.0549026,19.8092091 C36.2147965,19.7920791 26.9530384,25.62695 22.7025088,34.8628877 L34.654216,34.8913203 L34.654216,36.1984182 C30.973997,35.7555521 31.2980588,37.6666679 31.8190393,39.6950809 L39.6647914,59.3582638 L45.4314441,45.840601 L42.7841439,39.5056471 C41.8225579,37.8088813 41.8022632,35.9264494 37.8683105,36.1037264 L37.9235682,34.8992071 L55.4524944,34.9418561 L55.4524944,36.2916029 C53.3996675,36.4120147 50.9285392,35.7754952 52.2384502,39.9792566 L59.3280246,58.6021363 L63.2035547,47.7302165 C64.4726252,43.1727549 63.2782532,38.7930226 61.7701677,34.4982365 C60.9314047,31.6170451 61.3225796,29.2108698 65.0821186,28.2563668 C59.3435972,22.39879 52.5725087,19.820562 46.0551036,19.8092091 L46.0549026,19.8092091 Z M69.8951223,37.0019167 L58.5306547,66.6245626 C61.6690962,63.9063817 64.8870586,62.9169659 68.8247789,55.3958784 C71.4447517,49.1400938 71.1750434,43.3448076 69.8951223,37.0018664 L69.8951223,37.0019167 Z M21.4995969,37.4818055 C20.3903722,46.226853 20.4918456,48.7882022 23.2376553,55.9295179 C26.8168531,62.7691262 29.5924016,64.2101488 33.5317796,66.8929647 L21.4995467,37.4818055 L21.4995969,37.4818055 Z M46.4985222,48.577871 L38.0766323,68.8977676 C43.9882613,70.5850893 49.2777881,70.3739041 54.1200784,68.496797 L46.4985222,48.5778207 L46.4985222,48.577871 Z" id="icon-wordpress"></path>
        </g>
    </g>
</svg>

<svg width="90" height="90" viewBox="0 0 90 90" xmlns="http://www.w3.org/2000/svg"><title>community/card/logo/wordpress</title><path d="M46.055 19.81c-9.84-.018-19.102 5.817-23.352 15.053l11.951.028v1.307c-3.68-.442-3.356 1.469-2.835 3.497l7.846 19.663 5.766-13.517-2.647-6.335c-.961-1.697-.982-3.58-4.916-3.402l.056-1.205 17.528.043v1.35c-2.052.12-4.523-.517-3.214 3.687l7.09 18.623 3.876-10.872c1.269-4.557.074-8.937-1.434-13.232-.839-2.881-.447-5.287 3.312-6.242-5.738-5.857-12.51-8.435-19.027-8.447zm23.84 17.192L58.531 66.625c3.138-2.719 6.356-3.708 10.294-11.23 2.62-6.255 2.35-12.05 1.07-18.393zm-48.395.48c-1.11 8.745-1.008 11.306 1.738 18.448 3.579 6.84 6.354 8.28 10.294 10.963L21.5 37.482zm24.999 11.096l-8.422 20.32c5.911 1.687 11.2 1.476 16.043-.401L46.5 48.577z" fill="#FFF" fill-rule="evenodd"/></svg>
